map-marker-remove-variant.svg

<svg fill="currentColor" viewBox="0 0 24 24"><path d="M12 2C8.14 2 5 5.14 5 9c0 5.25 7 13 7 13s7-7.75 7-13c0-3.86-3.14-7-7-7M9.59 5.17 12 7.58l2.41-2.41 1.42 1.41L13.41 9l2.42 2.41-1.42 1.42L12 10.41l-2.41 2.42-1.42-1.42L10.59 9 8.17 6.58"/></svg>

<svg  viewBox="0 0 24 24" fill="currentColor"><path  d="M12,2C8.14,2 5,5.14 5,9C5,14.25 12,22 12,22C12,22 19,14.25 19,9C19,5.14 15.86,2 12,2M9.59,5.17L12,7.58L14.41,5.17L15.83,6.58L13.41,9L15.83,11.41L14.41,12.83L12,10.41L9.59,12.83L8.17,11.41L10.59,9L8.17,6.58"/></svg>
